static/assets/images/networks/base.svg

<svg width="256" height="256" viewBox="0 0 256 256" fill="none" xmlns="http://www.w3.org/2000/svg">
<path d="M128 256C198.692 256 256 198.692 256 128C256 57.3075 198.692 0 128 0C57.3075 0 0 57.3075 0 128C0 198.692 57.3075 256 128 256Z" fill="#1552F0"/>
<path d="M128 216.576C176.919 216.576 216.576 176.919 216.576 128C216.576 79.0808 176.919 39.424 128 39.424C82.1929 39.424 44.5072 74.1956 39.8977 118.784H172.544V137.216H39.8977C44.5072 181.804 82.193 216.576 128 216.576Z" fill="white"/>
</svg>

<svg xmlns="http://www.w3.org/2000/svg" fill="none" viewBox="0 0 256 256"><path fill="#1552F0" d="M128 256c70.692 0 128-57.308 128-128S198.692 0 128 0 0 57.308 0 128s57.308 128 128 128"/><path fill="#fff" d="M128 216.576c48.919 0 88.576-39.657 88.576-88.576 0-48.92-39.657-88.576-88.576-88.576-45.807 0-83.493 34.772-88.102 79.36h132.646v18.432H39.898c4.61 44.588 42.295 79.36 88.102 79.36"/></svg>
